icons/pinescript-dark.svg

<svg width="256" height="256" viewBox="0 0 256 256" fill="none" xmlns="http://www.w3.org/2000/svg">
<rect width="256" height="256" rx="60" fill="#282828"/>
<path d="M128.053 209.858H41.3657C38.4547 209.858 35.4418 210.218 33.6911 207.096C31.8861 203.873 33.9965 201.668 35.6861 199.286C44.1908 187.416 52.6729 175.529 61.1324 163.627C62.2419 162 63.7118 160.651 65.4277 159.685C74.6291 154.559 83.7898 149.373 92.9097 144.125C93.6007 143.57 94.4696 143.283 95.3556 143.32C96.2415 143.356 97.0842 143.712 97.7275 144.322C100.113 146.241 103.042 147.36 106.1 147.519C109.157 147.679 112.187 146.871 114.76 145.211C115.294 144.756 115.972 144.507 116.673 144.507C117.374 144.507 118.053 144.756 118.587 145.211C125.775 150.545 133.013 155.813 140.301 161.015C140.857 161.46 141.3 162.029 141.594 162.678C141.887 163.327 142.023 164.036 141.991 164.747C142.274 168.483 143.896 171.992 146.558 174.629C149.221 177.266 152.745 178.854 156.484 179.101C160.223 179.349 163.926 178.239 166.913 175.976C169.899 173.713 171.97 170.449 172.743 166.783C172.894 165.833 173.274 164.934 173.85 164.163C174.426 163.392 175.18 162.773 176.048 162.358C179.441 160.553 182.766 158.708 185.935 156.591C187.97 155.233 189.117 155.233 190.637 157.398C200.687 171.723 210.865 185.959 221.037 200.195C222.55 202.312 223.819 204.335 222.346 207.035C220.874 209.736 218.553 209.872 215.927 209.872C186.631 209.831 157.34 209.826 128.053 209.858Z" fill="#078340"/>
<path d="M106.902 116.216C103.108 116.137 99.4232 117.489 96.5814 120.004C93.7396 122.519 91.949 126.012 91.5661 129.787C91.5344 130.928 91.1736 132.035 90.5271 132.975C89.8805 133.916 88.9759 134.649 87.9222 135.087C82.8126 137.801 77.8387 140.76 72.8037 143.596C71.1781 144.175 69.4091 144.213 67.7598 143.706C66.1106 143.198 64.6691 142.172 63.6498 140.78C62.7139 139.74 62.2154 138.379 62.2584 136.981C62.3014 135.583 62.8825 134.255 63.8806 133.275C74.1676 118.975 84.4163 104.653 94.6265 90.3081L122.57 51.1344C126.472 45.6651 129.722 45.6176 133.563 51.019L191.241 131.979C195.238 137.591 194.851 139.314 188.913 142.836C183.485 146.032 177.968 149.133 172.574 152.411C172.255 152.708 171.879 152.936 171.469 153.081C171.059 153.227 170.623 153.286 170.189 153.255C169.754 153.225 169.331 153.105 168.945 152.904C168.559 152.702 168.219 152.424 167.946 152.085C165.352 149.591 161.953 148.105 158.361 147.896C154.769 147.687 151.221 148.768 148.355 150.945C148.065 151.232 147.72 151.459 147.341 151.613C146.962 151.766 146.556 151.843 146.147 151.838C145.738 151.834 145.334 151.748 144.958 151.587C144.583 151.425 144.243 151.191 143.958 150.897C137.652 146.147 131.276 141.499 124.83 136.953C124.015 136.459 123.358 135.744 122.935 134.891C122.512 134.038 122.341 133.082 122.441 132.135C122.507 130.059 122.153 127.991 121.4 126.054C120.647 124.118 119.511 122.354 118.06 120.867C116.609 119.381 114.873 118.203 112.955 117.403C111.038 116.604 108.979 116.2 106.902 116.216Z" fill="#00B353"/>
</svg>

<svg xmlns="http://www.w3.org/2000/svg" width="256" height="256" fill="none"><rect width="256" height="256" fill="#282828" rx="60"/><path fill="#078340" d="M128.053 209.858H41.366c-2.911 0-5.924.36-7.675-2.762-1.805-3.223.305-5.428 1.995-7.81q12.758-17.805 25.446-35.659a12.8 12.8 0 0 1 4.296-3.942 2272 2272 0 0 0 27.482-15.56 3.66 3.66 0 0 1 4.818.197 14.57 14.57 0 0 0 17.033.889 2.95 2.95 0 0 1 3.826 0 1452 1452 0 0 0 21.714 15.804 4.52 4.52 0 0 1 1.69 3.732 15.566 15.566 0 0 0 30.752 2.036 5.93 5.93 0 0 1 3.305-4.425c3.393-1.805 6.718-3.65 9.887-5.767 2.035-1.358 3.182-1.358 4.702.807 10.05 14.325 20.228 28.561 30.4 42.797 1.513 2.117 2.782 4.14 1.309 6.84-1.472 2.701-3.793 2.837-6.419 2.837a35260 35260 0 0 0-87.874-.014"/><path fill="#00B353" d="M106.902 116.216a15.1 15.1 0 0 0-15.336 13.571 5.92 5.92 0 0 1-3.644 5.3c-5.11 2.714-10.083 5.673-15.118 8.509a8.01 8.01 0 0 1-9.154-2.816 5.43 5.43 0 0 1 .23-7.505q15.432-21.45 30.746-42.967l27.944-39.174c3.902-5.469 7.152-5.516 10.993-.115l57.678 80.96c3.997 5.612 3.61 7.335-2.328 10.857-5.428 3.196-10.945 6.297-16.339 9.575a3.175 3.175 0 0 1-3.629.493 3.2 3.2 0 0 1-.999-.819 15.095 15.095 0 0 0-19.591-1.14 3.1 3.1 0 0 1-2.208.893 3.1 3.1 0 0 1-2.189-.941 755 755 0 0 0-19.128-13.944 5.02 5.02 0 0 1-2.389-4.818 15.43 15.43 0 0 0-15.539-15.919"/></svg>
